**harm	**harte	**timestamp	**phrase	**leadinstrument	**kern
*M4/4	*M4/4	*	*	*	*
*G:	*G:	*	*	*	*G:
1r;	N	0	.	r	1r;
=1	=1	=1	=1	=1	=1
*>A_intro	*>A_intro	*>A_intro	*>A_intro	*>A_intro	*>A_intro
1I	G:maj	0.047	newline	piano	1G 1b 1dd
=2	=2	=2	=2	=2	=2
1IV	C:maj	2.003	.	piano	1C 1e 1g
=3	=3	=3	=3	=3	=3
1IV	C:maj	3.96	.	piano	1C 1e 1g
=4	=4	=4	=4	=4	=4
1V	D:maj	5.916	.	piano	1D 1f# 1a
=5	=5	=5	=5	=5	=5
1I	G:maj	7.872	.	piano	1G 1b 1dd
=6	=6	=6	=6	=6	=6
1IV	C:maj	9.829	.	piano	1C 1e 1g
=7	=7	=7	=7	=7	=7
1IV	C:maj	11.785	.	piano	1C 1e 1g
=8	=8	=8	=8	=8	=8
1V	D:maj	13.741	.	piano	1D 1f# 1a
=9	=9	=9	=9	=9	=9
1I	G:maj	15.698	newline	piano	1G 1b 1dd
=10	=10	=10	=10	=10	=10
1I	G:maj	17.601	.	piano	1G 1b 1dd
=11	=11	=11	=11	=11	=11
1I	G:maj	19.504	.	piano	1G 1b 1dd
=12	=12	=12	=12	=12	=12
1I	G:maj	21.408	.	piano	1G 1b 1dd
=13	=13	=13	=13	=13	=13
*>B_verse	*>B_verse	*>B_verse	*>B_verse	*>B_verse	*>B_verse
1I	G:maj	23.311	newline	voice	1G 1b 1dd
=14	=14	=14	=14	=14	=14
1IV	C:maj	25.272	.	voice	1C 1e 1g
=15	=15	=15	=15	=15	=15
1I	G:maj	27.233	.	voice	1G 1b 1dd
=16	=16	=16	=16	=16	=16
1IV	C:maj	29.194	.	voice	1C 1e 1g
=17	=17	=17	=17	=17	=17
1I	G:maj	31.155	newline	voice	1G 1b 1dd
=18	=18	=18	=18	=18	=18
1IV	C:maj	33.122	.	voice	1C 1e 1g
=19	=19	=19	=19	=19	=19
1-VII	F:maj	35.09	.	voice	1F 1a 1cc
=20	=20	=20	=20	=20	=20
4ii	A:min	37.057	.	voice	4A 4cc 4ee
4iii	B:min	37.549	.	voice	4B 4dd 4ff#
4IV	C:maj	38.041	.	voice	4C 4e 4g
4V	D:maj	38.532	.	voice	4D 4f# 4a
=21	=21	=21	=21	=21	=21
1I	G:maj	39.024	newline	voice	1G 1b 1dd
=22	=22	=22	=22	=22	=22
1I	G:maj	40.943	.	voice	1G 1b 1dd
=23	=23	=23	=23	=23	=23
*>B_verse	*>B_verse	*>B_verse	*>B_verse	*>B_verse	*>B_verse
1I	G:maj	42.862	newline	voice	1G 1b 1dd
=24	=24	=24	=24	=24	=24
1IV	C:maj	44.836	.	voice	1C 1e 1g
=25	=25	=25	=25	=25	=25
1I	G:maj	46.811	.	voice	1G 1b 1dd
=26	=26	=26	=26	=26	=26
1IV	C:maj	48.786	.	voice	1C 1e 1g
=27	=27	=27	=27	=27	=27
1I	G:maj	50.761	newline	voice	1G 1b 1dd
=28	=28	=28	=28	=28	=28
1IV	C:maj	52.777	.	voice	1C 1e 1g
=29	=29	=29	=29	=29	=29
1-VII	F:maj	54.793	.	voice	1F 1a 1cc
=30	=30	=30	=30	=30	=30
4ii	A:min	56.809	.	voice	4A 4cc 4ee
4iii	B:min	57.313	.	voice	4B 4dd 4ff#
4IV	C:maj	57.817	.	voice	4C 4e 4g
4V	D:maj	58.321	.	voice	4D 4f# 4a
=31	=31	=31	=31	=31	=31
4ii	A:min	58.825	.	voice	4A 4cc 4ee
4iii	B:min	59.329	.	voice	4B 4dd 4ff#
4IV	C:maj	59.833	.	voice	4C 4e 4g
4V	D:maj	60.337	.	voice	4D 4f# 4a
=32	=32	=32	=32	=32	=32
4ii	A:min	60.841	.	voice	4A 4cc 4ee
4iii	B:min	61.346	.	voice	4B 4dd 4ff#
4IV	C:maj	61.85	.	voice	4C 4e 4g
4V	D:maj	62.354	.	voice	4D 4f# 4a
=33	=33	=33	=33	=33	=33
1I	G:maj	62.858	newline	voice	1G 1b 1dd
=34	=34	=34	=34	=34	=34
1I	G:maj	64.795	.	voice	1G 1b 1dd
=35	=35	=35	=35	=35	=35
*>C_prechorus	*>C_prechorus	*>C_prechorus	*>C_prechorus	*>C_prechorus	*>C_prechorus
2ii	A:min	66.733	newline	voice	2A 2cc 2ee
2vi	E:min	67.742	.	voice	2E 2g 2b
=36	=36	=36	=36	=36	=36
2-VII	F:maj	68.752	.	voice	2F 2a 2cc
2I	G:maj	69.761	.	voice	2G 2b 2dd
=37	=37	=37	=37	=37	=37
1ii	A:min	70.771	.	voice	1A 1cc 1ee
=38	=38	=38	=38	=38	=38
2IV	C:maj	72.79	.	voice	2C 2e 2g
2I	G:maj	73.8	.	voice	2G 2b 2dd
=39	=39	=39	=39	=39	=39
2ii	A:min	74.809	newline	voice	2A 2cc 2ee
2vi	E:min	75.819	.	voice	2E 2g 2b
=40	=40	=40	=40	=40	=40
2-VII	F:maj	76.828	.	voice	2F 2a 2cc
2I	G:maj	77.838	.	voice	2G 2b 2dd
=41	=41	=41	=41	=41	=41
1vi	E:min	78.847	.	voice	1E 1g 1b
=42	=42	=42	=42	=42	=42
2vi	E:min	80.867	.	voice	2E 2g 2b
2V	D:maj	81.876	.	voice	2D 2f# 2a
=43	=43	=43	=43	=43	=43
*>D_interlude	*>D_interlude	*>D_interlude	*>D_interlude	*>D_interlude	*>D_interlude
1r	N	82.886	newline	drums	1r
=44	=44	=44	=44	=44	=44
1r	N	84.855	.	drums	1r
=45	=45	=45	=45	=45	=45
*>E_chorus	*>E_chorus	*>E_chorus	*>E_chorus	*>E_chorus	*>E_chorus
1IV	C:maj	86.825	newline	voice	1C 1e 1g
=46	=46	=46	=46	=46	=46
1I	G:maj	88.86	.	voice	1G 1b 1dd
=47	=47	=47	=47	=47	=47
1-VII	F:maj	90.896	.	voice	1F 1a 1cc
=48	=48	=48	=48	=48	=48
1I	G:maj	92.931	.	voice	1G 1b 1dd
=49	=49	=49	=49	=49	=49
1IV	C:maj	94.967	newline	voice	1C 1e 1g
=50	=50	=50	=50	=50	=50
1I	G:maj	96.908	.	voice	1G 1b 1dd
=51	=51	=51	=51	=51	=51
4ii	A:min	98.85	.	voice	4A 4cc 4ee
4iii	B:min	99.335	.	voice	4B 4dd 4ff#
4IV	C:maj	99.821	.	voice	4C 4e 4g
4V	D:maj	100.306	.	voice	4D 4f# 4a
=52	=52	=52	=52	=52	=52
4vi	E:min	100.791	.	voice	4E 4g 4b
4Vb	D:maj/3	101.277	.	voice	4d 4F# 4a
4I	G:maj	101.762	.	voice	4G 4b 4dd
4Ib	G:maj/3	102.248	.	voice	4g 4B 4dd
=53	=53	=53	=53	=53	=53
1IV	C:maj	102.733	newline	voice	1C 1e 1g
=54	=54	=54	=54	=54	=54
2vi	E:min	104.76	.	voice	2E 2g 2b
2V	D:maj	105.773	.	voice	2D 2f# 2a
=55	=55	=55	=55	=55	=55
*>E_chorus	*>E_chorus	*>E_chorus	*>E_chorus	*>E_chorus	*>E_chorus
1IV	C:maj	106.787	newline	voice	1C 1e 1g
=56	=56	=56	=56	=56	=56
1I	G:maj	108.769	.	voice	1G 1b 1dd
=57	=57	=57	=57	=57	=57
1-VII	F:maj	110.751	.	voice	1F 1a 1cc
=58	=58	=58	=58	=58	=58
1I	G:maj	112.734	.	voice	1G 1b 1dd
=59	=59	=59	=59	=59	=59
1IV	C:maj	114.716	newline	voice	1C 1e 1g
=60	=60	=60	=60	=60	=60
1I	G:maj	116.716	.	voice	1G 1b 1dd
=61	=61	=61	=61	=61	=61
4ii	A:min	118.715	.	voice	4A 4cc 4ee
4iii	B:min	119.215	.	voice	4B 4dd 4ff#
4IV	C:maj	119.715	.	voice	4C 4e 4g
4V	D:maj	120.214	.	voice	4D 4f# 4a
=62	=62	=62	=62	=62	=62
4vi	E:min	120.714	.	voice	4E 4g 4b
4Vb	D:maj/3	121.214	.	voice	4d 4F# 4a
4I	G:maj	121.714	.	voice	4G 4b 4dd
4Ib	G:maj/3	122.214	.	voice	4g 4B 4dd
=63	=63	=63	=63	=63	=63
1IV	C:maj	122.713	newline	voice	1C 1e 1g
=64	=64	=64	=64	=64	=64
2vi	E:min	124.701	.	voice	2E 2g 2b
2V	D:maj	125.695	.	voice	2D 2f# 2a
=65	=65	=65	=65	=65	=65
*>B2_outro	*>B2_outro	*>B2_outro	*>B2_outro	*>B2_outro	*>B2_outro
1I	G:maj	126.689	newline	.	1G 1b 1dd
=66	=66	=66	=66	=66	=66
1IV	C:maj	128.681	.	.	1C 1e 1g
=67	=67	=67	=67	=67	=67
1I	G:maj	130.672	.	.	1G 1b 1dd
=68	=68	=68	=68	=68	=68
1IV	C:maj	132.663	.	.	1C 1e 1g
=69	=69	=69	=69	=69	=69
1I	G:maj	134.655	.	.	1G 1b 1dd
=70	=70	=70	=70	=70	=70
1IV	C:maj	136.646	.	.	1C 1e 1g
=71	=71	=71	=71	=71	=71
1I	G:maj	138.637	.	.	1G 1b 1dd
=72	=72	=72	=72	=72	=72
1IV	C:maj	140.629	.	.	1C 1e 1g
=73	=73	=73	=73	=73	=73
1I	G:maj	142.62	.	.	1G 1b 1dd
=74	=74	=74	=74	=74	=74
1IV	C:maj	144.612	.	.	1C 1e 1g
=75	=75	=75	=75	=75	=75
1I	G:maj	146.603	.	.	1G 1b 1dd
=76	=76	=76	=76	=76	=76
1IV	C:maj	148.594	.	.	1C 1e 1g
=77	=77	=77	=77	=77	=77
1I	G:maj	150.586	.	.	1G 1b 1dd
=78	=78	=78	=78	=78	=78
1IV	C:maj	152.577	.	.	1C 1e 1g
=79	=79	=79	=79	=79	=79
1I	G:maj	154.568	.	.	1G 1b 1dd
=80	=80	=80	=80	=80	=80
1IV	C:maj	156.56	.	.	1C 1e 1g
=81	=81	=81	=81	=81	=81
1I	G:maj	158.551	.	.	1G 1b 1dd
=82	=82	=82	=82	=82	=82
1IV	C:maj	160.542	.	.	1C 1e 1g
=83	=83	=83	=83	=83	=83
1I	G:maj	162.534	.	.	1G 1b 1dd
=84	=84	=84	=84	=84	=84
1IV	C:maj	164.525	.	.	1C 1e 1g
=85	=85	=85	=85	=85	=85
1I	G:maj	166.517	.	.	1G 1b 1dd
=86	=86	=86	=86	=86	=86
1IV	C:maj	168.508	.	.	1C 1e 1g
=87	=87	=87	=87	=87	=87
1I	G:maj	170.499	.	.	1G 1b 1dd
=88	=88	=88	=88	=88	=88
1IV	C:maj	172.491	.	.	1C 1e 1g
=89	=89	=89	=89	=89	=89
1I	G:maj	174.482	.	.	1G 1b 1dd
=90	=90	=90	=90	=90	=90
1IV	C:maj	176.473	.	.	1C 1e 1g
=91	=91	=91	=91	=91	=91
1I	G:maj	178.465	.	.	1G 1b 1dd
=92	=92	=92	=92	=92	=92
1IV	C:maj	180.456	.	.	1C 1e 1g
=93	=93	=93	=93	=93	=93
1I	G:maj	182.447	.	.	1G 1b 1dd
=94	=94	=94	=94	=94	=94
1IV	C:maj	184.439	.	.	1C 1e 1g
=95	=95	=95	=95	=95	=95
1I	G:maj	186.43	.	.	1G 1b 1dd
=96	=96	=96	=96	=96	=96
1IV	C:maj	188.421	.	.	1C 1e 1g
=97	=97	=97	=97	=97	=97
1I	G:maj	190.413	newline	.	1G 1b 1dd
=98	=98	=98	=98	=98	=98
1IV	C:maj	192.275	.	.	1C 1e 1g
=99	=99	=99	=99	=99	=99
1V	D:maj	194.138	.	.	1D 1f# 1a
=100	=100	=100	=100	=100	=100
1IV	C:maj	196.001	.	.	1C 1e 1g
=101	=101	=101	=101	=101	=101
1I	G:maj	197.863	newline	.	1G 1b 1dd
=102	=102	=102	=102	=102	=102
1IV	C:maj	199.704	.	.	1C 1e 1g
=103	=103	=103	=103	=103	=103
1I	G:maj	201.544	.	.	1G 1b 1dd
=104	=104	=104	=104	=104	=104
1IV	C:maj	203.384	.	.	1C 1e 1g
=105	=105	=105	=105	=105	=105
*>E2_outro	*>E2_outro	*>E2_outro	*>E2_outro	*>E2_outro	*>E2_outro
1IV	C:maj	205.224	newline	.	1C 1e 1g
=106	=106	=106	=106	=106	=106
1r	N	207.193	.	.	1r
=107	=107	=107	=107	=107	=107
1r	N	209.162	.	.	1r
=108	=108	=108	=108	=108	=108
1r	N	211.131	.	.	1r
=109	=109	=109	=109	=109	=109
1r	N	213.1	newline	.	1r
=110	=110	=110	=110	=110	=110
1r	N	215.018	.	.	1r
=111	=111	=111	=111	=111	=111
1r	N	216.936	.	.	1r
=112	=112	=112	=112	=112	=112
1r	N	218.853	.	.	1r
=113	=113	=113	=113	=113	=113
1r	N	220.771	.	.	1r
=114	=114	=114	=114	=114	=114
1r	N	222.689	.	.	1r
=115	=115	=115	=115	=115	=115
1r	N	224.607	.	.	1r
=116	=116	=116	=116	=116	=116
1r	N	226.525	.	.	1r
=117	=117	=117	=117	=117	=117
1r	N	228.443	.	.	1r
=118	=118	=118	=118	=118	=118
1r	N	230.361	.	.	1r
=119	=119	=119	=119	=119	=119
1r	N	232.278	.	.	1r
=120	=120	=120	=120	=120	=120
1r	N	234.196	.	.	1r
=121	=121	=121	=121	=121	=121
1r	N	236.114	.	.	1r
=122	=122	=122	=122	=122	=122
1r	N	238.032	.	.	1r
=123	=123	=123	=123	=123	=123
1r	N	239.95	.	.	1r
=124	=124	=124	=124	=124	=124
1r	N	241.868	.	.	1r
=125	=125	=125	=125	=125	=125
1r	N	243.785	newline	.	1r
=126	=126	=126	=126	=126	=126
1r	N	245.663	.	.	1r
=127	=127	=127	=127	=127	=127
1r	N	247.541	.	.	1r
=128	=128	=128	=128	=128	=128
1I	G:maj	249.419	.	.	1G 1b 1dd
=129	=129	=129	=129	=129	=129
1IV	C:maj	251.297	newline	.	1C 1e 1g
=130	=130	=130	=130	=130	=130
1I	G:maj	253.138	.	.	1G 1b 1dd
=131	=131	=131	=131	=131	=131
1-VII	F:maj	254.979	.	.	1F 1a 1cc
=132	=132	=132	=132	=132	=132
1I	G:maj	256.82	.	.	1G 1b 1dd
=133	=133	=133	=133	=133	=133
1IV	C:maj	258.661	.	.	1C 1e 1g
=134	=134	=134	=134	=134	=134
1I	G:maj	260.502	.	.	1G 1b 1dd
=135	=135	=135	=135	=135	=135
1-VII	F:maj	262.344	.	.	1F 1a 1cc
=136	=136	=136	=136	=136	=136
1I	G:maj	264.185	.	.	1G 1b 1dd
=137	=137	=137	=137	=137	=137
1IV	C:maj	266.026	.	.	1C 1e 1g
=138	=138	=138	=138	=138	=138
1I	G:maj	267.867	.	.	1G 1b 1dd
=139	=139	=139	=139	=139	=139
1-VII	F:maj	269.708	.	.	1F 1a 1cc
=140	=140	=140	=140	=140	=140
1I	G:maj	271.549	.	.	1G 1b 1dd
=141	=141	=141	=141	=141	=141
1IV	C:maj	273.39	newline	voice	1C 1e 1g
=142	=142	=142	=142	=142	=142
1I	G:maj	275.177	.	voice	1G 1b 1dd
=143	=143	=143	=143	=143	=143
1-VII	F:maj	276.965	.	voice	1F 1a 1cc
1r;	N	278.753	.	r	1r;
1r;	N	290.116	.	r	1r;
*-	*-	*-	*-	*-	*-
!!!OTL: You Took The Words Right Out Of My Mouth
!!!COC: Meat Loaf
!!!BillboardChartDate: 1978/12/02
!!!BillboardPeak: 39
!!!BillboardWeeksOnChart: 13
!!!SampleTargetRank: 63
!!!SampleActualRank: 64
!!!SampleID#: 0807
!!!RDF**harmony: **recip + pitch class of root + harmonic quality
!!!RDF**harte: Chris Harte's syntax, used by MIREX
!!!RDF**phrase: newline = linebreak in original McGill transcription
!!!RDF**timestamp: McGill audio timestamp in seconds
!!!RDF**leadinstrument: original McGill primary instrumentation annotation
!!!RDT: 2017/01/12/
!!!ENC: Nathaniel Condit-Schultz
!!!EST: Awating manual error checking and editing.
